X:1
T:Deck the Halls
C:Traditional (Welsh)
M:4/4
L:1/4
Q:1/4=120
K:G
G A B c | d2 d2 | d e f g | a4 | g f e d | e2 e2 | e f g a | b4 | d e f g | a2 a2 | b c' b a | g4 | a b c' d' | e'2 e'2 | d' c' b a | g4 |]
w: Deck the halls with boughs of hol-ly | Fa la la la la | la la la la | Tis the sea-son to be jol-ly | Fa la la la la | la la la la | Don we now our gay ap-par-el | Fa la la la la | la la la la | Troll the an-cient Yule-tide car-ol | Fa la la la la | la la la la |
